X:1
T:Sanctus
T:Sanctus
T:JWV 
T:J. G. Rheinberger
C:J. G. Rheinberger
%%score [ 1 2 3 4 ]
L:1/8
Q:1/2=80
M:3/2
K:Bb
V:1 treble nm="Soprano"
V:2 treble nm="Alto"
V:3 treble-8 nm="Tenor"
V:4 bass nm="Bass"
V:1
 B8 B4 | (A6 B2) A4 | (G8 c4) | B12 |: z12 | e8 A4 | f4 d4 B4 | A8 A4 | G4 c8 | B12 | %10
w: San- ctus,|San- * ctus,|San- *|ctus,||San- ctus|Do- mi- nus|Sa- ba-|oth, San-|ctus,|
 (F2 G2 A2 B2) (c2 d2) | e6 d2 c4 | f2 d2 (B2 c2) (d2 =e2) | f12 | z12 | B8 B4 | (A6 B2) A4 | %17
w: San- * * * ctus, _|Do- mi- nus|De- us Sa- * ba- *|oth.||San- ctus,|San- * ctus,|
 (G8 c4) | B12 :| %19
w: San- *|ctus,|
V:2
 z12 | F8 F4 | (E6 F2) E4 | (D8 G4) |: F12 | z12 | B8 E4 | c4 A4 F4 | E8 E4 | D4 G8 | F12 | %11
w: |San- ctus,|San- * ctus,|San- *|ctus,||San- ctus|Do- mi- nus|Sa- ba-|oth, San-|ctus,|
 (C2 D2 E2 F2) (G2 A2) | B6 A2 G4 | c2 A2 (F2 G2) (A2 =B2) | c12 | z12 | F8 F4 | (E6 F2) E4 | %18
w: San- * * * ctus, _|Do- mi- nus|De- us Sa- * ba- *|oth.||San- ctus,|San- * ctus,|
 (D8 G4) :| %19
w: San - *|
V:3
 z12 | z12 | z12 | B8 B4 |: (A6 B2) A4 | (G8 c4) | B12 | z12 | e8 A4 | f4 d4 B4 | A8 A4 | G4 c8 | %12
w: |||San- ctus,|San- * ctus,|San- *|ctus,||San- ctus|Do- mi- nus|Sa- ba-|oth, San-|
 B12 | (F2 G2 A2 B2) (c2 d2) | e6 d2 c4 | f2 d2 (B2 c2) (d2 =e2) | f12 | z12 | B8 B4 :| %19
w: ctus,|San- * * * ctus, _|Do- mi- nus|De- us Sa- * ba- *|oth.||San- ctus,|
V:4
 z12 | z12 | z12 | z12 |: F,8 F,4 | (E,6 F,2) E,4 | (D,8 G,4) | F,12 | z12 | B,8 E,4 | C4 A,4 F,4 | %11
w: ||||San- ctus,|San- * ctus,|San- *|ctus,||San- ctus|Do- mi- nus|
 E,8 E,4 | D,4 G,8 | F,12 | (C,2 D,2 E,2 F,2) (G,2 A,2) | B,6 A,2 G,4 | %16
w: Sa- ba-|oth, San-|ctus,|San- * * * ctus, _|Do- mi- nus|
 C2 A,2 (F,2 G,2) (A,2 =B,2) | C12 | z12 :| %19
w: De- us Sa- * ba- *|oth.||

